public/github.svg

<svg role="img" viewBox="0 0 24 24" xmlns="http://www.w3.org/2000/svg"><title>GitHub icon</title><path d="M12 .297c-6.63 0-12 5.373-12 12 0 5.303 3.438 9.8 8.205 11.385.6.113.82-.258.82-.577 0-.285-.01-1.04-.015-2.04-3.338.724-4.042-1.61-4.042-1.61C4.422 18.07 3.633 17.7 3.633 17.7c-1.087-.744.084-.729.084-.729 1.205.084 1.838 1.236 1.838 1.236 1.07 1.835 2.809 1.305 3.495.998.108-.776.417-1.305.76-1.605-2.665-.3-5.466-1.332-5.466-5.93 0-1.31.465-2.38 1.235-3.22-.135-.303-.54-1.523.105-3.176 0 0 1.005-.322 3.3 1.23.96-.267 1.98-.399 3-.405 1.02.006 2.04.138 3 .405 2.28-1.552 3.285-1.23 3.285-1.23.645 1.653.24 2.873.12 3.176.765.84 1.23 1.91 1.23 3.22 0 4.61-2.805 5.625-5.475 5.92.42.36.81 1.096.81 2.22 0 1.606-.015 2.896-.015 3.286 0 .315.21.69.825.57C20.565 22.092 24 17.592 24 12.297c0-6.627-5.373-12-12-12"/></svg>

<svg width="24" height="24" viewBox="0 0 24 24" fill="none" xmlns="http://www.w3.org/2000/svg">
<path d="M12 0.296997C5.37 0.296997 0 5.67 0 12.297C0 17.6 3.438 22.097 8.205 23.682C8.805 23.795 9.025 23.424 9.025 23.105C9.025 22.82 9.015 22.065 9.01 21.065C5.672 21.789 4.968 19.455 4.968 19.455C4.422 18.07 3.633 17.7 3.633 17.7C2.546 16.956 3.717 16.971 3.717 16.971C4.922 17.055 5.555 18.207 5.555 18.207C6.625 20.042 8.364 19.512 9.05 19.205C9.158 18.429 9.467 17.9 9.81 17.6C7.145 17.3 4.344 16.268 4.344 11.67C4.344 10.36 4.809 9.29 5.579 8.45C5.444 8.147 5.039 6.927 5.684 5.274C5.684 5.274 6.689 4.952 8.984 6.504C9.944 6.237 10.964 6.105 11.984 6.099C13.004 6.105 14.024 6.237 14.984 6.504C17.264 4.952 18.269 5.274 18.269 5.274C18.914 6.927 18.509 8.147 18.389 8.45C19.154 9.29 19.619 10.36 19.619 11.67C19.619 16.28 16.814 17.295 14.144 17.59C14.564 17.95 14.954 18.686 14.954 19.81C14.954 21.416 14.939 22.706 14.939 23.096C14.939 23.411 15.149 23.786 15.764 23.666C20.565 22.092 24 17.592 24 12.297C24 5.67 18.627 0.296997 12 0.296997" fill="#181717"/>
</svg>
